X: 1
T: The Moving Cloud
R: reel
M: 4/4
L: 1/8
K: Gmaj
|:DGBG ^DGcG | DGBG AGFG | c3A (3Bcd gb | aged BAGE |
DGBG ^DGcG | DGBG AGFG | cBAc BAGB | ADEF G3z :||
|:~d2 bd adgd | ~d2 bd adgd | ~e2 c'e beae | ~e2 c'e beae
~d2 bd adgd | ~d2 bd adgd| cBAc BAGB | ADEF G3z :||
|:Bd~d2 ed~d2 | Bd~d2 edcB | ce~e2 fe~e2 | fefe fedc
Bd~d2 ed~d2 | Bd~d2 edcB | cBAc BAGB | ADEF G3z :||


Tune 1091	Setting 14334

